X:17
T:Jigs 7 - Upton upon Severn
M:6/8
T:Dribbles Of Brandy
K:Emin
"Em"EGE G2A | B2e "Bm"dBG | "D(F#m)"A2B cBA | "C" BAG "Bm"FED |
"C"EGE G2A | "Am"B2e "G/B"dBG| "C"A2B "D"cBA | "Em"BGE E3 :|
"Em"e2f g2e | "D"fag fed | "C"e2f g2e | "D"fed "Em"ez2 |
e2f g2e | "D"fag fed | "C"e2B "D"cBA | "Em"BGE E3 :|
T:Upton on Severn Stick Dance
M:6/8
K:G
d | "G"dBB BAG | "C"AGA BGE | "G/B"DGG GBd|"C"edB "D"A2d |
"G"dBB BAG | "C"AGA BGE | "D"DGG G2B | "Am"AG"D"F "G"G2:|
G | "G"GBd g2d | "C"edc "D"BcA | "G"GBd g2d | "C"edB "D"A2G |
"G"GBd g2d | "C"edc "G/B"Bcd | "C"ege "D"dBG | "G"AGA "G"G2 :|
%%newpage

